assets/icon-silhouette.svg

<svg
  class="icon icon-accordion icon-silhouette"
  aria-hidden="true"
  focusable="false"
  xmlns="http://www.w3.org/2000/svg"
  width="20"
  height="20"
  viewBox="0 0 20 20"
>
  <path d="M12.5 12.0391H7.5C4.46243 12.0391 2 14.5484 2 17.6437V18.481H18V17.6437C18 14.5484 15.5376 12.0391 12.5 12.0391ZM7.5 11.0201C3.91015 11.0201 1 13.9856 1 17.6437V19.5H19V17.6437C19 13.9856 16.0899 11.0201 12.5 11.0201H7.5Z" fill-rule="evenodd"/>
  <path d="M14.3596 5.08556C14.3596 7.6181 12.3448 9.67113 9.85956 9.67113C7.37428 9.67113 5.35956 7.6181 5.35956 5.08556C5.35956 2.55303 7.37428 0.5 9.85956 0.5C12.3448 0.5 14.3596 2.55303 14.3596 5.08556ZM9.85956 8.65211C11.7926 8.65211 13.3596 7.05532 13.3596 5.08556C13.3596 3.11581 11.7926 1.51901 9.85956 1.51901C7.92656 1.51901 6.35956 3.11581 6.35956 5.08556C6.35956 7.05532 7.92656 8.65211 9.85956 8.65211Z"/>
</svg>

<svg xmlns="http://www.w3.org/2000/svg" class="icon icon-accordion icon-silhouette" viewBox="0 0 20 20"><path fill-rule="evenodd" d="M12.5 12.04h-5c-3.038 0-5.5 2.508-5.5 5.604v.837h16v-.837c0-3.096-2.462-5.605-5.5-5.605m-5-1.02c-3.59 0-6.5 2.966-6.5 6.624V19.5h18v-1.856c0-3.658-2.91-6.624-6.5-6.624z"/><path d="M14.36 5.086c0 2.532-2.015 4.585-4.5 4.585-2.486 0-4.5-2.053-4.5-4.585S7.374.5 9.86.5c2.485 0 4.5 2.053 4.5 4.586m-4.5 3.566c1.933 0 3.5-1.597 3.5-3.566 0-1.97-1.567-3.567-3.5-3.567s-3.5 1.597-3.5 3.567 1.567 3.566 3.5 3.566"/></svg>
